portfolio/src/asset/picture_source/project_icon/Software_Tool/Frontend/thymeleaf.svg

<?xml version="1.0" encoding="UTF-8"?>
<svg width="45px" height="45px" viewBox="0 0 256 257" version="1.1" xmlns="http://www.w3.org/2000/svg" preserveAspectRatio="xMidYMid">
    <title>Thymeleaf</title>
    <g>
        <rect fill="#005F0F" x="-1.97940601e-14" y="0" width="256" height="256.431459"></rect>
        <path d="M218.18659,34.9646529 C186.658889,73.5985277 148.154821,105.956763 107.093448,134.007508 C93.7448358,143.562742 79.0086196,152.067171 68.7461212,165.152069 C64.826548,172.038399 63.8806411,181.735819 70.5820665,187.323565 C81.7424453,197.841003 99.1260588,200.128855 113.107402,194.240887 C132.681714,186.785438 146.200676,169.814244 157.56475,152.991433 C182.923413,116.457793 198.301888,74.4363832 218.18659,34.9646529 L218.18659,34.9646529 Z" fill="#FFFFFF"></path>
        <path d="M200.104098,48.3235138 C160.850157,79.4260876 129.451869,96.234868 89.3072076,110.69382 C77.1912414,115.878186 64.2064086,122.457498 58.5777399,135.178978 C52.7825381,147.214547 54.6819014,163.998413 61.3299099,175.142481 C60.8325531,170.451098 63.3388374,162.871696 67.0675159,159.313451 C79.4403159,145.534702 95.5558764,136.506786 109.73129,126.044423 L109.765137,126.01559 L109.799123,125.992747 C142.605268,103.462527 173.361702,77.7170478 200.104098,48.3235138 L200.104098,48.3235138 Z" fill="#AEA99F"></path>
    </g>
</svg>

<svg xmlns="http://www.w3.org/2000/svg" width="45" height="45" preserveAspectRatio="xMidYMid" viewBox="0 0 256 257"><path fill="#005F0F" d="M0 0h256v256.431H0z"/><path fill="#FFF" d="M218.187 34.965c-31.528 38.634-70.032 70.992-111.094 99.043-13.348 9.555-28.084 18.06-38.347 31.144-3.92 6.886-4.865 16.584 1.836 22.172 11.16 10.517 28.544 12.805 42.525 6.917 19.575-7.456 33.094-24.427 44.458-41.25 25.358-36.533 40.737-78.555 60.622-118.026Z"/><path fill="#AEA99F" d="M200.104 48.324c-39.254 31.102-70.652 47.91-110.797 62.37-12.116 5.184-25.1 11.763-30.73 24.485-5.794 12.036-3.895 28.82 2.753 39.963-.497-4.69 2.009-12.27 5.738-15.829 12.372-13.778 28.488-22.806 42.663-33.269l.034-.028.034-.023c32.806-22.53 63.563-48.276 90.305-77.67Z"/></svg>
